X: 2
T: 'S Ann An Ìle
R: strathspey
M: 4/4
K: Gmajor
|:G>A B>G c>A B>G|E<E A>G F<D D2|G>A B>G c>A B>G|E>A F>D G2 G2:|
|:D>D D>D (3DDD D>D|d>B A>B G<E E2|D>D D>D (3DDD D>D|d>B A>B G2 G2:|

